X: 2
T: The Dawn
R: reel
M: 4/4
L: 1/8
K: Amaj
abga fece|fbba geea|gebe c'ebe|ac'ea c'ae'c'|abga fece|dcBc defg|(3aba gb afec|1 dcBe cAAg:|2 dcBe cAA2||


Tune 167	Setting 12808

